X: 1
T: Paidn \`i Raifearta
M: 6/8
L: 1/8
R: jig
K: Amaj
E|:ABc ~E2E|ABc BAF|ABc ~E2E|ABA AFE|
ABc ~E2E|ABc efe|ecB BAB|1cAA A2E:|2cAA A2c||
|:ecc ecc|edc B2c|~e2c ecB|A2B AFE|
ecc ecc|efg a2f|e2c BAB|1cAA A2c:|2cAA A2E||
